X:1
T:Barcarolle
T:à Mlle Jeanne Halbronn
T:__________
T:Barcarolle
T:Op. 7
T:Cécile CHAMINADE (1857-1944)
T:Domaine public - Première publication: 1880
T:Domaine public - Première publication: 1880
T:Domaine public - Première publication: 1880
T:Domaine public - Première publication: 1880
T:Domaine public - Première publication: 1880
T:Domaine public - Première publication: 1880
T:Domaine public - Première publication: 1880
T:Domaine public - Première publication: 1880
C:Cécile CHAMINADE (1857-1944)
Z:Domaine public - Première publication: 1880
%%score { ( 1 2 5 ) | ( 3 4 ) }
L:1/8
Q:1/8=138
M:6/8
K:F
V:1 treble nm="Piano"
V:2 treble 
V:5 treble 
V:3 bass 
V:4 bass 
V:1
"^Moderato"!mp!{/B} c2 A!<(! (B/c/e/a)g/!<)! | f2 c({cd)} cBA | %2
{/B} d2 G!<(!"_cresc." (A/c/^d/b)a/ | g2!<)! e!<(!!<(! edc!<)!!<)! |!f! c'>ac'/a/ !>!g!>!e!>!d | %5
 c>A"_dim."c/A/ !>!G!>!E!>!D ||[M:9/8]!p! C>A,C/A,/ CEA E2 D ||[M:6/8] C2 E (F/_A/=B/ed/) | %8
 [Ec] z G (_A/"_cresc."=B/d/gf/) | [ce] z c (_d/f/_a/c'b/) | [eg] z g!<(! (_a/=b/d'/_b')!<)!_a'/ | %11
 (g'/e'/c'/a/c'/_e'/) (d'/=b/_a/g/_b/_d'/) |"_dim." (c'/a/^f/^d/c/A/) (c/B/G/E/C/B,/) | %13
!p!{/A} c2 A!<(! (B/c/e/a)g/!<)! | f2 c({cd)} cBA |{/B} d2 G!<(! (A/c/^d/b!<)!a/) | %16
"_cresc." g2 e- efg | (ag/f/e/d/) !^!g3 | (fe/d/c/=B/) !^!e3 |!p! (_ed/c/B/A/) (G^F)G | %20
 (AB)d (EF) z | z6 |"_dim." x2 z !>!B/B,/E/B,/F/G/ | !>!A/A,/D/A,/E/F/ GDE | %24
 [DF] x2!f! !>!f/F/=B/F/c/d/ | !>!e/E/A/E/=B/c/ dA=B | [^CA^c]2 .[G,B,E] x2 .[GBe] | %27
 z/ (e/!f!e'/^c'/a/e/ ^c/B/A/B/A/B/) | (G>AG/A/) (F>GF/G/) | %29
 (E/A/e/^c/A/E/[I:staff +1] ^C/B,/A,/B,/A,/B,/) | %30
[I:staff -1][K:bass] (G,>A,G,/.A,/) (F,>=G,F,/G,/) | %31
!pp! (E,/A,/^C/^F,/A,/C/[K:treble] E/A/^c/^F/A/c/ | %32
 e/a/^c'/^f/a/c'/)!8va(! (e'/a'/^c''/d'/^g'/e''/ | a'')!8va)! z e a2 z | x2 E[Q:1/4=64] !>!A2 E | %35
!p! !>![G,G]2 E (F/G/=B/ed/) | c2 [EG]{/A} [EG][DF][CE] | %37
"_cresc." (!>![FA][=B,D]/) z/ (!>![fa][Q:1/4=69][=Be]/) z/ (!>![FA][B,D]/) z/ | %38
[Q:1/4=72]"_cresc." (!>![G_B][^CE]/) z/ (!>![gb][^ce]/) z/ (!>![GB][CE]/) z/ | %39
!ff![Q:1/4=74]"^m.d." (!>![^g=b]/[df]/)"_m.g." (!>![^G=B]/[DF]/)"^m.d."!8va(! (!>![^g'=b']/[d'f']/)!8va)!"_m.g." (!>![^g=b]/[df]/)"^m.d." (!>![gb]/[df]/) z | %40
[Q:1/4=69]"_dim."{/^G} !>!=B6[Q:1/4=60][Q:1/4=56][Q:1/4=48] | %41
[K:F][K:treble]"^a Tempo"[Q:1/4=69]!mp!{/B} c2 A (B/c/e/ag/) | (f2 c({cd)} cBA) | %43
{/B} d2 G"_cresc." (A/c/^d/ba/) | g2 e!<(! (edc)!<)! |!f! c'>ac'/a/ ged | c>A"_dim."c/A/ GED || %47
[M:9/8]!p! C>A,C/A,/ CEA E2 D ||[M:6/8] C2 .E F/_A/=B/ed/ |"_cresc." [Ec] z .G (_A/=B/d/gf/) | %50
 [ce] z .c (_d/f/!f!_a/c'b/) | [eg] z g (_a/=b/d'/_b'_a'/) | %52
 (g'/e'/c'/a/c'/_e'/) (d'/=b/_a/g/"_dim."_b/_d'/) | (c'/a/^f/^d/c/A/) (c/B/G/E/C/B,/) | %54
!mp!{/A} c2 A!<(! (B/c/e/ag/)!<)! | f2 c{cd} cBA |"_cresc."{/B} d2 G (A/c/^d/ba/) | g2 e- efg | %58
 (ag/f/e/d/) z/ G/=B/G/c/G/ |"_dim." (fe/d/c/=B/) z/ E/^G/E/A/E/ |!p! (_ed/c/B/A/)"_dim." (G^F)G | %61
[Q:1/4=64] (A[Q:1/4=56]B)[Q:1/4=48]d!pp!{/E} [B,E]3 | %62
!p!"^a Tempo"[Q:1/4=69] [A,F] z .A (B/d/f/ag/) | [Af] z .F (_G/=A/c/_e_d/) | %64
 [FAc] z!pp! C (D/F/A/cB/) | A3{/F} [DFG]3 |{/F} [CFA]3{/F} [DFG]3 |!p!{/F} [CFA]3 x2 z | %68
 x2 z{/!fermata!d} !>!!fermata![Gd]3 |{/f} !>![Af] x2[I:staff +1]{/F,} [C,F,A,]3- | %70
 [C,F,A,]3[I:staff -1] x2 z |] %71
V:2
 z/ CCC/ x2 [Be] | z/ AAC/ z/ CCC/ | z/ EEE/ x2 [c^d] | e/BBB/ z/ EDC/ | %4
 z/ c/f/ z/ z g/G/e/E/d/D/ | %5
 z/ C/F/ z/ z G/[I:staff +1]G,/[I:staff -1]E/[I:staff +1]E,/[I:staff -1]D/[I:staff +1]D,/ || %6
[M:9/8] x9 ||[M:6/8][I:staff -1] x2 x x2 [F=B] | x x x x2 [_Ad] | x x x x2 _d | x x x x2 =b | x6 | %12
 x6 | A,/CCC/ x2 [Be] | z/ AAC/ z/ CCC/ | z/ EEE/ x2 [c^d] | e/BBB/ z/ BBB/ | %17
 z/ A/- A2 z/ G/=B/G/c/G/ | z/ ^G/- G2 z/ E/G/E/A/E/ | z/ _E/- E2 z/ EED/ | z/ DDD/ z/ B,/A, z | %21
 x6 | x3 B3 | A3 G/G,/D/G,/^C/G,/ | x3 f3 | e3 d/D/A/D/^G/D/ | x6 | x6 | x6 | x6 |[K:bass] x6 | %31
 x3[K:treble] x3 | x3!8va(! x3 | x!8va)! x5 | x3 A,3 | x3 x2 [F=B] | x6 | x6 | x6 | %39
 x2!8va(! x!8va)! x3 | x6 |[K:F][K:treble] z/ CCC/ x2 [Be] | z/ AAC/ z/ CCC/ | z/ EEE/ x2 [c^d] | %44
 e/BBB/ z/ EDC/ | z/ c/f/ z/ z g/G/e/E/d/D/ | %46
 z/ C/F/ z/ z G/[I:staff +1]G,/[I:staff -1]E/[I:staff +1]E,/[I:staff -1]D/[I:staff +1]D,/ || %47
[M:9/8] x9 ||[M:6/8][I:staff -1] x2 x x2 x | x x x x2 =B | x x x x2 _d | x x x x2 =b | x6 | x6 | %54
 A,/CCC/ x2 [Be] | z/ AAC/ z/ CCC/ | z/ EEE/ x2 [c^d] | e/BBB/ z/!<(! BBB/!<)! | z/ A/- A2 !^!g3 | %59
 z/ ^G/- G2 !^!e3 | z/ _E/- E2 z/ EED/ | z/ DDD/ x x2 | x2 x x2 [Be] | x x x x2 [=GB] | %64
 x x x x2 [EG] | x6 | x6 | x6 | x6 | x6 | x6 |] %71
V:3
"^dolce""^ben sostenuto"!ped! (F,,C,C)!ped-up!!ped! (C,CC,)!ped-up! | %1
!ped! (F,,C,A,) (A,!ped-up!G,F,) |!ped! ([F,,G,]C,G,)!ped-up!!ped! (^F,C,F,)!ped-up! | %3
!ped! ([F,,G,]C,G,)!ped-up!!ped! (^G,C,G,)!ped-up! | %4
!ped! !arpeggio![F,,C,A,] z/ F/A/F/!ped-up! ECB, |!ped! A,>F,A,/F,/!ped-up! E,C,=B,, || %6
[M:9/8]!ped! z/ C,/F,/ z/ z!ped-up! G,/C,E,B,/!ped! A,/F,F,/G,/F,/!ped-up! || %7
[M:6/8]!ped! E,2 z!ped-up!!ped! ([_A,D]2 G,)!ped-up! | %8
!ped! (C,/G,/C/E/) z!ped-up!!ped! !>!F3!ped-up! |!ped! (C,/G,/C/G/) z!ped-up!!ped! !>!_A3!ped-up! | %10
[K:treble]!ped! (C/G/c/e/) z f3!ped-up! | %11
!ped! (C>c_e/_g/)!ped-up!!ped! (f/d/=B/_B/!ped-up!_d/=e/) | %12
!ped! (^d/c/A/^F/^D/C/)!ped-up![K:bass]!ped! (E/C/B,/G,/E,/C,/)!ped-up! | %13
"^dolce"!ped! (F,,C,C)!ped-up!!ped! (C,CC,)!ped-up! |!ped! ([F,,,F,,]C,A,) (A,!ped-up!G,F,) | %15
!ped! ([F,,G,]C,G,)!ped-up!!ped! (^F,C,F,)!ped-up! |!ped! ([F,,G,]C,G,) (C!ped-up!DE) | %17
!ped! (FF,)!ped-up! z!ped! [E,,E,]3!ped-up! |!ped! [D,,D,]3!ped-up!!ped! [^C,,^C,]3!ped-up! | %19
"^dolce"!ped! [=C,,=C,]3-!ped-up! [C,,C,][C,,C,][B,,,B,,] | %20
 [A,,,A,,][G,,,G,,] z [C,,C,][F,,,F,,]/G,,/A,,/B,,/ |!<(! (C,D,/E,/F,/G,/ A,/B,/C/=B,/D/C/)!<)! | %22
 (_B,/A,/G,/F,/E,/D,/!ped! C,3)!ped-up! | %23
"^marcato il basso"!ped! !>!F,,2 !>!B,,!ped-up!!ped! !>!E,,2 !>!A,,!ped-up! | %24
!ped! (D,,/A,,/D,/F,/A,/) z/ x2 !>!G,,!ped-up! |!ped! C,,2 F,,!ped-up!!ped! =B,,,2 E,,!ped-up! | %26
!ped! (A,,,/E,,/A,,/E,/.D,)!ped-up!!ped! ([A,,^C,]/E,/A,/E/.D)!ped-up! | %27
!ped! [^CEA]/ z/ x2 x2!ped-up! z |[K:treble] z [E^c]2 z [D^G=B]2 | %29
[K:bass]!ped! ^C x2 x2!ped-up! z |!ped! A,, [E,^C]2!ped-up! z [D,^G,=B,]2 | %31
!ped! [A,,,A,,]>D,!ped-up!^F,/A,/ ^C,/E,/A,/[I:staff -1]D/F/A/ | %32
 (^C/E/A/d/f/a/)[I:staff +1][K:treble] (^c/e/a/ =b/d'/e'/) | [a^c'] z z!ped! x2[I:staff -1] E | %34
 A2[I:staff +1] z"^poco meno mosso" x2 z!ped-up! | %35
[K:bass]!ped! (C,,/G,,/C,,/G,,/C,,/!ped-up!G,,/!ped! C,,/G,,/C,,/G,,/C,,/G,,/)!ped-up! | %36
!ped! (C,,/G,,/C,,/G,,/C,,/G,,/ C,,/G,,/C,,/!ped-up!G,,/C,,/G,,/) | %37
!ped! (C,,/G,,/C,/G,,/"^marcato"C,,/G,,/ C,/G,,/"^animato"C,,/G,,/C,/G,,/)!ped-up! | %38
!ped! (C,,/G,,/G,/G,,/C,,/G,,/) (G,/G,,/C,,/G,,/G,/G,,/)!ped-up! |!ped! C,,3- C,,2 (C,,/C,,,/) | %40
 z/[I:staff -1] (F/D/[I:staff +1]=B,/^G,/F,/)"^poco riten." (D,/=B,,/^G,,/F,,/!ped-up!E,,/D,,/) | %41
[K:F][K:bass]!ped! z C^F,!ped-up!!ped! (G,CC,)!ped-up! |!ped! (F,,C,A,) (A,!ped-up!G,F,) | %43
!ped! [F,,G,]C,G,!ped-up!!ped! ^F,C,.F,!ped-up! |!ped! [F,,G,]C,G,!ped-up!!ped! ^G,C,G,!ped-up! | %45
!ped! !arpeggio![F,,C,A,] z/ F/A/F/!ped-up! ECB, |!ped! A,>F,A,/F,/!ped-up! E,C,=B,, || %47
[M:9/8]!ped! z/"^m.d." C,/F,/ z/ z!ped-up! G,/"^m.g."C,E,"^m.d."B,/!ped! A,/F,F,/G,/!ped-up!F,/ || %48
[M:6/8]!ped! E,2 z!ped-up!!ped! (!>![_A,D]2 G,)!ped-up! | %49
 (C,/G,/!ped!C/E/) z!ped-up!!ped! !>!F3!ped-up! | (C,/G,/!ped!C/G/) z!ped-up!!ped! !>!_A3!ped-up! | %51
[K:treble] (C/G/!ped!c/e/) z!ped-up!!ped! f3!ped-up! | %52
!ped! (C>c_e/_g/)!ped-up!!ped! (f/d/=B/_B/!ped-up!_d/=e/) | %53
!ped! (^d/c/A/^F/^D/C/)!ped-up![K:bass]!ped! (E/C/B,/G,/E,/C,/)!ped-up! | %54
"^dolce"!ped! (F,,C,C)!ped-up!!ped! (G,CC,)!ped-up! |!ped! (F,,C,A,) (A,!ped-up!G,F,) | %56
!ped! ([F,,G,]C,G,)!ped-up!!ped! (^F,C,F,)!ped-up! |!ped! ([F,,G,]C,G,) (C!ped-up!DE) | %58
!ped! (FF,)!ped-up! z!ped! z =B,!ped-up!C |!ped! z F2!ped-up!!ped! z (^G,!ped-up!A,) | %60
!ped! z C2 x3!ped-up! |"^ritard." [A,,,A,,][G,,,G,,] z!ped! [C,,C,]3!ped-up! | %62
!ped! ([F,,,F,,]/C,/F,/C/) .F!ped-up!!ped! (G2 C)!ped-up! | %63
!ped! ([F,,C,]/F,/A,/C/) .D!ped-up!!ped! _E2 =E!ped-up! |!ped! (F,,/C,/F,/G,/) A,!ped-up! (B,G,C) | %65
!ped! (F/C/F,/C/F,/C/)!ped-up!!ped! (B,/F,/B,,/F,/B,,/F,/)!ped-up! | %66
!ped! (F,/C,/F,,/C,/F,,/C,/)!ped-up!!ped! (B,,/F,,/B,,,/F,,/B,,,/F,,/)!ped-up! | %67
 ([F,,,F,,]>!<(!G,,A,,/B,,/) (C,D,/E,/F,/G,/)!<)! | %68
 (A,/B,/C/D/E/F/-)!ped! !>!!fermata![B,F]3!ped-up! |!ped!{/F,} !>![F,C] x2{/C,,} [F,,,F,,]3- | %70
 [F,,,F,,]3 x2 z!ped-up! |] %71
V:4
 x6 | x6 | x6 | x6 | x6 | x6 ||[M:9/8] A,,>F,,A,,/F,,/ E,,C,,^C,, D,,=C,[G,,=B,,] || %7
[M:6/8] (C,,/G,,/C,/G,/) x x2 x | x6 | x6 |[K:treble] x6 | x6 | x3[K:bass] x3 | x6 | x6 | x6 | x6 | %17
 x3 z (=B,C) | z F2 z (^B,C) | z C2 x3 | x6 | x6 | x6 | x6 | F, x5 | x6 | x6 | x6 |[K:treble] x6 | %29
[K:bass] x6 | x6 | x6 | x3[K:treble] x3 | x6 | x6 |[K:bass] x6 | x6 | x6 | x6 | x6 | x6 | %41
[K:F][K:bass] C,,3 x x x | x6 | x6 | x6 | x6 | x6 || %47
[M:9/8] A,,>F,,A,,/F,,/ E,,C,,^C,, D,,=C,[G,,=B,,] ||[M:6/8] (C,,/G,,/C,/G,/) x x x x | x6 | x6 | %51
[K:treble] x6 | x6 | x3[K:bass] x3 | x6 | x6 | x6 | x6 | x3 [E,,E,]3 | [D,,D,]3 [^C,,^C,]3 | %60
 [=C,,=C,]3- [C,,C,][C,,C,][B,,,B,,] | x6 | x6 | x6 | x6 | x6 | x6 | x6 | x6 | x6 | x6 |] %71
V:5
 x6 | x6 | x6 | x6 | x6 | x6 ||[M:9/8] x9 ||[M:6/8] x6 | x6 | x6 | x6 | x6 | x6 | x6 | x6 | x6 | %16
 x6 | x4 =Bc | x4 ^GA | x6 | x6 | x6 | x6 | x6 | x6 | x6 | x6 | x6 | x6 | x6 |[K:bass] x6 | %31
 x3[K:treble] x3 | x3!8va(! x3 | x!8va)! x5 | x6 | x6 | x6 | x6 | x6 | x2!8va(! x!8va)! x3 | x6 | %41
[K:F][K:treble] x6 | x6 | x6 | x6 | x6 | x6 ||[M:9/8] x9 ||[M:6/8] x6 | x6 | x6 | x6 | x6 | x6 | %54
 x6 | x6 | x6 | x6 | x4 =Bc | x4 ^GA | x6 | x6 | x6 | x6 | x6 | x6 | x6 | x6 | x6 | x6 | x6 |] %71

